X:16
T:Cooley's
S:The Session: https://thesession.org/tunes/1#setting55324
C:Traditional
R:reel
K:Edor
M:4/4
L:1/8
Q:1/4=120
ED|:"Em"EBBA B2 EB|"Em"B2 AB dBAG|"D"F/E/D AD BDAD|"D"F/E/D AD BAGF|
"Em"EBBA B2 EB|"Em" B2 AB defg|"D" afec dBAF|1 "D"DEFD "Em"E3 ED:|2 "D"DEFD "Em"E3 gf||
|: "Em"eBB2 eBgf|"Em"eBB2 gedB|"D"A/A/A FA DAFA|"D"A/A/A FA defg|
"Em"eBB2 eBgf|"Em"eBB2 defg|"D"afec dBAF|1"D"DEFD "Em"E2 gf:|2 "D"DEFD "Em"E4 ||

